!!!OTL: Folk song Number 22
!!!CNT: Chinese
**kern
*k[f#c#g#]
*M2/4
=1
(16cc#
[4..b
=2
2b)]
=3
8.b
16cc#
(8.a
16f#)
=4
(16a
16f#
16e
16a)
(16b
[8.b
=5
2b)]
=6
8.a
16b
(8.a
16f#)
=7
8e
4e;
16f#
16c#
=8
8.a
16b
(8.a
16f#)
=9
(8.e
16a)
(16b
[8.b
=10
2b)]
=11
8a
(4a
8f#)
=12
(8.e
16b)
8b
8b
=13
(8e
8a)
8.a
16f#
=14
8e
4b
8r
=15
8e
(16b
16f#)
8.a
16f#
=16
8e
16b
16b
(8.a
16f#)
=17
(16e
[4..e
=18
2e)]
==
*-
!!!PPR: Yin yueh ch'u pan she
!!!OPR: Chung-kuo min ko Chung-kuo yin yueh yen chiu so pien [Chinese folk songs]
!!!OCL: Chung-kuo yin yueh yen chiu so
!!!PPP: Beijing, China
!!!PDT: 1959///
!!!SML: Edward Johnson Library, University of Toronto M1804.C4694C5
!!!PPG: p.18
!!!ENC: David Huron
!!!EMD: Paul von Hippel updated this file in the following ways (1998/9/29/):
!!!EMD:  (1) changed the representation of slurs from curly braces to parentheses 
!!!EMD:  (2) changed freeform comments into reference records and tandem interpretations
!!!EMD:  (3) corrected the author, title, author, and call number of the printed source 
!!!EEV: Version 2.0
